assets/images/icons/ico-slide-3.svg

<svg width="23" height="23" viewBox="0 0 23 23" fill="none" xmlns="http://www.w3.org/2000/svg">
<path fill-rule="evenodd" clip-rule="evenodd" d="M4.99599 3.89789V11.644C4.99599 15.158 7.84464 18.0067 11.3586 18.0067C14.8726 18.0067 17.7213 15.158 17.7213 11.644C17.7213 8.13004 14.8726 5.28139 11.3586 5.28139V4.22559C15.4557 4.22559 18.7771 7.54693 18.7771 11.644C18.7771 15.7411 15.4557 19.0625 11.3586 19.0625C7.26153 19.0625 3.94019 15.7411 3.94019 11.644V3.89789H4.99599Z" fill="#0000FF"/>
<path fill-rule="evenodd" clip-rule="evenodd" d="M7.29189 2.13821V11.4633C7.29189 13.8253 9.13081 15.7058 11.3577 15.7058C13.5845 15.7058 15.4235 13.8253 15.4235 11.4633C15.4235 9.10129 13.5845 7.22083 11.3577 7.22083V6.16502C14.2049 6.16502 16.4793 8.5561 16.4793 11.4633C16.4793 14.3705 14.2049 16.7616 11.3577 16.7616C8.5105 16.7616 6.23608 14.3705 6.23608 11.4633V2.13821H7.29189Z" fill="#0000FF"/>
<path fill-rule="evenodd" clip-rule="evenodd" d="M11.3563 21.4947C16.7986 21.4947 21.2105 17.0828 21.2105 11.6405C21.2105 6.19815 16.7986 1.78628 11.3563 1.78628C5.91397 1.78628 1.5021 6.19815 1.5021 11.6405C1.5021 17.0828 5.91397 21.4947 11.3563 21.4947ZM11.3563 22.5505C17.3817 22.5505 22.2663 17.6659 22.2663 11.6405C22.2663 5.61505 17.3817 0.730469 11.3563 0.730469C5.33087 0.730469 0.446289 5.61505 0.446289 11.6405C0.446289 17.6659 5.33087 22.5505 11.3563 22.5505Z" fill="#DF0112"/>
</svg>

<svg width="23" height="23" fill="none" xmlns="http://www.w3.org/2000/svg"><path fill-rule="evenodd" clip-rule="evenodd" d="M4.996 3.898v7.746a6.363 6.363 0 106.363-6.363V4.226a7.418 7.418 0 11-7.419 7.418V3.898h1.056z" fill="#00F"/><path fill-rule="evenodd" clip-rule="evenodd" d="M7.292 2.138v9.325c0 2.362 1.839 4.243 4.066 4.243 2.226 0 4.066-1.88 4.066-4.243 0-2.362-1.84-4.242-4.066-4.242V6.165c2.847 0 5.121 2.391 5.121 5.298 0 2.908-2.274 5.299-5.121 5.299-2.848 0-5.122-2.392-5.122-5.299V2.138h1.056z" fill="#00F"/><path fill-rule="evenodd" clip-rule="evenodd" d="M11.356 21.495c5.443 0 9.854-4.412 9.854-9.855 0-5.442-4.411-9.854-9.854-9.854-5.442 0-9.854 4.412-9.854 9.854 0 5.443 4.412 9.855 9.854 9.855zm0 1.055c6.026 0 10.91-4.884 10.91-10.91 0-6.025-4.884-10.91-10.91-10.91C5.331.73.446 5.615.446 11.64c0 6.026 4.885 10.91 10.91 10.91z" fill="#DF0112"/></svg>
